images_elementary_svg/cmd/sc_print.svg

<?xml version="1.0" encoding="UTF-8" standalone="no"?>
<svg
   xmlns:dc="http://purl.org/dc/elements/1.1/"
   xmlns:cc="http://creativecommons.org/ns#"
   xmlns:rdf="http://www.w3.org/1999/02/22-rdf-syntax-ns#"
   xmlns:svg="http://www.w3.org/2000/svg"
   xmlns="http://www.w3.org/2000/svg"
   xmlns:sodipodi="http://sodipodi.sourceforge.net/DTD/sodipodi-0.dtd"
   xmlns:inkscape="http://www.inkscape.org/namespaces/inkscape"
   height="16"
   width="16"
   version="1.1"
   id="svg20"
   sodipodi:docname="sc_print.svg"
   inkscape:version="0.92.3 (unknown)"
   inkscape:export-filename="/home/rizmut/Dokumen/Rizmut/Github/libreoffice-style-elementary/images_elementary/cmd/sc_print.png"
   inkscape:export-xdpi="96"
   inkscape:export-ydpi="96">
  <metadata
     id="metadata26">
    <rdf:RDF>
      <cc:Work
         rdf:about="">
        <dc:format>image/svg+xml</dc:format>
        <dc:type
           rdf:resource="http://purl.org/dc/dcmitype/StillImage" />
        <dc:title></dc:title>
      </cc:Work>
    </rdf:RDF>
  </metadata>
  <defs
     id="defs24" />
  <sodipodi:namedview
     pagecolor="#ffffff"
     bordercolor="#666666"
     borderopacity="1"
     objecttolerance="10"
     gridtolerance="10"
     guidetolerance="10"
     inkscape:pageopacity="0"
     inkscape:pageshadow="2"
     inkscape:window-width="1366"
     inkscape:window-height="706"
     id="namedview22"
     showgrid="true"
     inkscape:snap-global="false"
     inkscape:zoom="7.375"
     inkscape:cx="-15.786952"
     inkscape:cy="17.076141"
     inkscape:window-x="0"
     inkscape:window-y="0"
     inkscape:window-maximized="1"
     inkscape:current-layer="svg20">
    <inkscape:grid
       type="xygrid"
       id="grid833" />
  </sodipodi:namedview>
  <g
     id="g1669">
    <path
       sodipodi:nodetypes="cccccc"
       style="fill:#505050;stroke:#565656;stroke-width:0.99970901;stroke-linecap:square"
       inkscape:connector-curvature="0"
       id="path6"
       d="m 2.8683853,14.499107 c 0.0073,0.359613 0.029665,0.914771 0.3421077,0.991264 3.3005711,0.01952 6.2780675,0.0028 9.579015,0.0084 0.340644,0.01588 0.35312,-0.621029 0.342108,-0.999661 H 2.8683853 Z" />
    <g
       stroke-linecap="round"
       id="g14">
      <path
         sodipodi:nodetypes="ccccc"
         inkscape:connector-curvature="0"
         id="path1491"
         d="M 0.64718248,6.5559297 1.3946059,3.5049857 14.611425,3.5086207 15.325501,6.572335 Z"
         style="fill:#4f4f4f;fill-opacity:1;fill-rule:evenodd;stroke:none;stroke-width:1px;stroke-linecap:butt;stroke-linejoin:miter;stroke-opacity:1" />
      <path
         sodipodi:nodetypes="sssccss"
         style="fill:#4f4f4f;stroke:none;stroke-width:0.99993199;stroke-linejoin:round;fill-opacity:1"
         inkscape:connector-curvature="0"
         id="path8"
         d="M 1.2251892,6.5169154 H 14.774809 c 0.401775,0 0.725226,0.3477098 0.725226,0.7796206 v 6.203498 H 0.49996514 V 7.296536 c 0,-0.4319108 0.32345002,-0.7796206 0.72522406,-0.7796206 z" />
      <path
         d="M 1.2251892,6.5169154 H 14.774809 c 0.401775,0 0.725226,0.3477098 0.725226,0.7796206 v 6.203498 H 0.49996514 V 7.296536 c 0,-0.4319108 0.32345002,-0.7796206 0.72522406,-0.7796206 z"
         id="path1474"
         inkscape:connector-curvature="0"
         style="fill:none;stroke:#393939;stroke-width:0.99993199;stroke-linejoin:round;fill-opacity:1;stroke-opacity:1;opacity:0.71"
         sodipodi:nodetypes="sssccss" />
      <rect
         style="color:#000000;display:inline;overflow:visible;visibility:visible;fill:#0cceff;fill-opacity:1;fill-rule:nonzero;stroke:none;stroke-width:1;marker:none;enable-background:accumulate"
         id="rect3991"
         y="8"
         x="12"
         height="2"
         width="2" />
      <path
         style="opacity:0.7;fill:none;fill-opacity:1;fill-rule:evenodd;stroke:#393939;stroke-width:1px;stroke-linecap:butt;stroke-linejoin:miter;stroke-opacity:1"
         d="M 0.64718248,6.5559297 1.3946059,3.5049857 14.611425,3.5086207 15.325501,6.572335 Z"
         id="path1493"
         inkscape:connector-curvature="0"
         sodipodi:nodetypes="ccccc" />
    </g>
    <path
       sodipodi:nodetypes="csssscc"
       style="fill:#e9e9e9;stroke-width:1.98724747"
       inkscape:connector-curvature="0"
       id="path16"
       d="M 13.000007,11 13,14.506356 C 12.999999,14.779835 12.93031,15 12.843749,15 H 3.156243 C 3.069681,15 2.999993,14.779835 2.999993,14.506356 L 3,11 Z" />
    <path
       sodipodi:nodetypes="ccccc"
       style="fill:#e9e9e9;stroke:#8c8c8c;stroke-width:0.99525303;stroke-linejoin:round"
       inkscape:connector-curvature="0"
       id="path4"
       d="m 3.4834428,0.49813255 9.0262342,0.001739 V 5.3559322 H 3.4834428 Z" />
  </g>
</svg>

<svg xmlns="http://www.w3.org/2000/svg" height="16" width="16"><path d="M2.868 14.5c.008.36.03.914.342.99 3.3.02 6.28.003 9.58.01.34.015.353-.622.342-1H2.868z" fill="#505050" stroke="#565656" stroke-linecap="square"/><g stroke-linecap="round"><path d="M.647 6.556l.748-3.05 13.216.003.716 3.062z" fill="#4f4f4f" fill-rule="evenodd"/><path d="M1.225 6.517h13.55c.402 0 .725.348.725.78V13.5H.5V7.297c0-.432.323-.78.725-.78z" fill="#4f4f4f"/><path d="M1.225 6.517h13.55c.402 0 .725.348.725.78V13.5H.5V7.297c0-.432.323-.78.725-.78z" fill="none" stroke="#393939" stroke-linejoin="round" opacity=".71"/><path color="#000" overflow="visible" fill="#0cceff" d="M12 8h2v2h-2z"/><path d="M.647 6.556l.748-3.05 13.216.003.716 3.062z" opacity=".7" fill="none" stroke="#393939" stroke-linecap="butt"/></g><path d="M13 11v3.506c0 .274-.07.494-.156.494H3.156C3.07 15 3 14.78 3 14.506V11z" fill="#e9e9e9"/><path d="M3.483.498L12.51.5v4.856H3.483z" fill="#e9e9e9" stroke="#8c8c8c" stroke-width=".995" stroke-linejoin="round"/></svg>
